X:7103
T:the Moon and seven stars
O:england
R:Jig
M:6/8
L:1/8
K:D
d2A AGF | GAB A3 | Bcd efg | fed cBA |\
d2A AGF | GAB A3 | Bcd efg | Adc d3 :|
|:e2A A2f | efg f3 | fgf e2d | cdc B3 |\
BGB AFA | BGB AFA | Bcd efg | Adc d3:|


